X:1
T:There Is Rest for You
T:There Is Rest for You
T:Jairus Maxson Stillman
T:Clara Lenore Stillman, 1897
T:Public Domain Courtesy of the Cyber Hymnal™
C:Jairus Maxson Stillman
Z:Public Domain
Z:Courtesy of the Cyber Hymnal™
%%score ( 1 2 ) ( 3 4 )
L:1/8
Q:1/4=105
M:4/4
K:Ab
V:1 treble 
V:2 treble 
V:3 bass 
V:4 bass 
V:1
 [Ec]>[DB] | [CA]2 [EG]2 [DF]2 [FA]2 | [DF]2 [CE]4 [CA]>[DB] | [Ec]2 [Ee]2 [Ed]2 [Ec]2 | %4
w: 1.~When the|cares of earth are|press- ing, Not a|star of hope in|
w: 2.~There are|stores of hid- den|trea- sure, Price- less|far be- yond com-|
w: 3.~There’s a|ha- ven for the|wear- y, Sad- dened|hearts may there find|
w: 4.~There’s a|home and rest for-|ev- er, When the|cares of earth are|
 [EB]6 [Ec]>[DB] | [CA]2 [EG]2 [DF]2 [FA]2 | [DF]2 [CE]4 [CA]>[DB] | [Ec]2 [Ae]2 [Ac]2 [GB]2 | %8
w: view, There are|heal- ing streams re-|fresh- ing, In a|Sav- ior’s love for|
w: pare, Pre- cious|gems you can- not|mea- sure; Joy and|peace and rest are|
w: rest, Cheer- ful|when the day is|drear- y, Pil- lowed|on the Sav- ior’s|
w: done, Where the|heart is wear- y|nev- er, There is|rest for ev- ery-|
 A6 ||"^Refrain" c>d | e6 f>e | c6 [EA]>[EB] | c6 [_Ed]>[Ec] | B6 [Ec]>[Ed] | %14
w: you.||||||
w: there.|Rest for|you, rest for|you, There is|sweet rest for|you; In the|
w: breast.||||||
w: one.||||||
 [Ee]2 [Ac]2 [AB]2 [Ac]2 | [Ad]2 [Ad]4!<(! [Fc]>[FB]!<)! | [EA]2 [EA]2 [Ec]2 [DB]2 | [CA]6 |] %18
w: ||||
w: heal- ing streams re-|fresh- ing, There is|rest, sweet rest for|you.|
w: ||||
w: ||||
V:2
 x2 | x8 | x8 | x8 | x8 | x8 | x8 | x8 | A6 || x2 | (A2 G2 A2) x2 | (A2 A2 A2) x2 | %12
 (E2 =E2 F2) x2 | (E2 =D2 E2) x2 | x8 | x8 | x8 | x6 |] %18
V:3
 [A,,A,]>[A,,A,] | [A,,A,]2 [A,,A,]2 [D,A,]2 [D,A,]2 | [A,,A,]2 [A,,A,]4 [A,,A,]>[A,,A,] | %3
w: ~ ~|~ ~ ~ ~|~ ~ ~ ~|
 [A,,A,]2 [C,A,]2 [E,G,]2 A,2 | [E,G,]6 [E,G,]>[E,G,] | [A,,A,]2 [A,,A,]2 [D,A,]2 [D,A,]2 | %6
w: ~ ~ ~ ~|~ ~ ~|~ ~ ~ ~|
 [A,,A,]2 [A,,A,]4 [F,A,]>[F,A,] | [E,A,]2 [E,C]2 [E,E]2 [E,D]2 | [A,,C]6 || z2 | %10
w: ~ ~ ~ ~|~ ~ ~ ~|~||
 [A,C]2 [E,B,]2 [A,C]2 z2 | [A,E]2 [E,E]2 [A,E]2 [A,C]>[A,D] | [A,C]2 [G,B,]2 [F,A,]2 [G,B,]>A, | %13
w: Rest for you,|rest for you, There is|rest for you, There is|
 [E,G,]2 [B,,F,]2 [E,G,]2 A,>[A,B,] | [A,C]2 [A,E]2 [A,D]2 [A,E]2 | [D,F]2 [D,F]4 [D,E]>[D,D] | %16
w: rest for you, * *|||
 [E,C]2 [E,C]2 [E,A,]2 [E,G,]2 | [A,,A,]6 |] %18
w: ||
V:4
 x2 | x8 | x8 | x6 A,2 | x8 | x8 | x8 | x8 | x6 || x2 | x8 | x8 | x15/2 A,/ | x6 A,3/2 x/ | x8 | %15
 x8 | x8 | x6 |] %18

